icons/rdt_result_out_stock_fill.svg

<svg width="48" height="48" viewBox="0 0 48 48" fill="none" xmlns="http://www.w3.org/2000/svg">
<path d="M27.707 6.29289C28.0975 6.68342 28.0975 7.31658 27.707 7.70711L25.4143 9.99976L27.7071 12.2925C28.0976 12.683 28.0976 13.3162 27.7071 13.7067C27.3166 14.0973 26.6834 14.0973 26.2929 13.7067L24.0001 11.414L21.7074 13.7067C21.3168 14.0973 20.6837 14.0973 20.2931 13.7067C19.9026 13.3162 19.9026 12.683 20.2931 12.2925L22.5859 9.99976L20.2933 7.70711C19.9027 7.31658 19.9027 6.68342 20.2933 6.29289C20.6838 5.90237 21.317 5.90237 21.7075 6.29289L24.0001 8.58554L26.2928 6.29289C26.6833 5.90237 27.3165 5.90237 27.707 6.29289Z" fill="black"/>
<path d="M19.1975 32.7281C20.5767 33.1878 22.0855 32.7454 23 31.6401L23 42.0231L11 37.5V29.9956L19.1975 32.7281Z" fill="black"/>
<path fill-rule="evenodd" clip-rule="evenodd" d="M37 37.5L25 42.0231V31.6401C25.9145 32.7454 27.4234 33.1878 28.8025 32.7281L37 29.9956V37.5ZM33.3162 35.4487C33.8402 35.274 34.1233 34.7077 33.9487 34.1838C33.774 33.6598 33.2077 33.3767 32.6838 33.5513L28.1838 35.0513C27.6598 35.226 27.3767 35.7923 27.5513 36.3162C27.726 36.8402 28.2923 37.1233 28.8162 36.9487L33.3162 35.4487Z" fill="black"/>
<path fill-rule="evenodd" clip-rule="evenodd" d="M24.3271 15.055C24.1152 14.9817 23.8848 14.9817 23.6729 15.055L10.6748 19.5544L10.6525 19.5623C10.4711 19.6295 10.3204 19.7441 10.2096 19.8872L6.21914 24.8753C6.01489 25.1306 5.94836 25.4697 6.04096 25.7832C6.13356 26.0968 6.3736 26.3453 6.68378 26.4487L20.1838 30.9487C20.6036 31.0886 21.0655 30.936 21.3192 30.5735L24 26.7438L26.6808 30.5735C26.9346 30.936 27.3964 31.0886 27.8162 30.9487L41.3162 26.4487C41.6264 26.3453 41.8665 26.0968 41.9591 25.7832C42.0517 25.4697 41.9851 25.1306 41.7809 24.8753L37.7904 19.8872C37.6803 19.7449 37.5306 19.6307 37.3505 19.5634C37.3421 19.5603 37.3336 19.5572 37.3251 19.5543L24.3271 15.055ZM24 23.9418L33.9429 20.5L24 17.0582L14.0571 20.5L24 23.9418Z" fill="black"/>
</svg>

<svg
  xmlns="http://www.w3.org/2000/svg"
  width="24"
  height="24"
  viewBox="0 0 24 24"
  fill="none"
  stroke="currentColor"
  stroke-width="2"
  stroke-linecap="round"
  stroke-linejoin="round"
>
  <path d="M27.707 6.293a1 1 0 0 1 0 1.414L25.414 10l2.293 2.293a1 1 0 0 1-1.414 1.414L24 11.414l-2.293 2.293a1 1 0 1 1-1.414-1.415L22.586 10l-2.293-2.293a1 1 0 1 1 1.415-1.414L24 8.586l2.293-2.293a1 1 0 0 1 1.414 0" />
  <path d="M19.198 32.728A3.5 3.5 0 0 0 23 31.64v10.383L11 37.5v-7.504z" />
  <path
    fill-rule="evenodd"
    d="m37 37.5-12 4.523V31.64a3.5 3.5 0 0 0 3.802 1.088L37 29.996zm-3.684-2.051a1 1 0 0 0-.632-1.898l-4.5 1.5a1 1 0 0 0 .632 1.898z"
    clip-rule="evenodd"
  />
  <path
    fill-rule="evenodd"
    d="M24.327 15.055a1 1 0 0 0-.654 0l-12.998 4.5-.023.007a1 1 0 0 0-.442.325l-3.99 4.988a1 1 0 0 0 .464 1.574l13.5 4.5a1 1 0 0 0 1.135-.376L24 26.743l2.68 3.83a1 1 0 0 0 1.136.376l13.5-4.5a1 1 0 0 0 .465-1.574l-3.99-4.988a1 1 0 0 0-.466-.333zM24 23.942l9.943-3.442L24 17.058 14.057 20.5z"
    clip-rule="evenodd"
  />
</svg>
